X: 1
T: Lafferty's Reel
T: the Girl I Left Behind
T: the Woman I Never Forgot
T: the Glen of Aherlow
T: the Crane's Leg
D: Planxty
D: Kevin Burke & Micheal O'Donnell
D: Michael McGoldrick: Morning Rory
D: Four Men and a Dog: Shifting Gravel
Z: From Henrik Norbeck's transcription; chords by John Chambers
M: C|
L: 1/8
R: reel
K: Edor
|:  "D"B2AF  B2AF | "Em"EDEF EDB,D | "D"B2AF    B2AF |    DFBA "Em"FE~E2  |
|   "D"B2AF  BFAF | "Em"EDEF EDB,A,|  B,E~E2 "D"DEFA |    dBAF "Em"FE~E2 :|
|: "Em"eB~B2 egfe |  "D"d2fd Adfd  | "Em"eB~B2  egfe | "D"dBAF "Em"FE~E2  |
|  "Em"eB~B2 egfe |  "D"d2fd Adfd  | "Em"~B3d   efge | "D"dBAF "Em"FE~E2 :|
